layeredwaves.svg

<svg width="960" height="120" xmlns="http://www.w3.org/2000/svg"><path fill="#9AC0CD" d="M0 0h960v120H0z"/><path d="M0 59l13.3-3.3c13.4-3.4 40-10 66.7-3.2 26.7 6.8 53.3 27.2 80 37.2 26.7 10 53.3 9.6 80 6.8 26.7-2.8 53.3-8.2 80-6.5 26.7 1.7 53.3 10.3 80 13.8 26.7 3.5 53.3 1.9 80-4.8 26.7-6.7 53.3-18.3 80-27.2 26.7-8.8 53.3-14.8 80-16.1 26.7-1.4 53.3 2 80 7 26.7 5 53.3 11.6 80 18.3 26.7 6.7 53.3 13.3 80 14.8 26.7 1.5 53.3-2.1 66.7-4L960 90V0H0z" fill="#9ac0cd"/><path d="M0 30l13.3.5c13.4.5 40 1.5 66.7 11C106.7 51 133.3 69 160 73c26.7 4 53.3-6 80-11.5 26.7-5.5 53.3-6.5 80-2.3 26.7 4.1 53.3 13.5 80 9.5 26.7-4 53.3-21.4 80-28.4 26.7-7 53.3-3.6 80-2 26.7 1.7 53.3 1.7 80 8.7 26.7 7 53.3 21 80 18.7 26.7-2.4 53.3-21 80-21.2 26.7-.2 53.3 18.2 80 21.3C906.7 69 933.3 57 946.7 51l13.3-6V0H0z" fill="#8ab1c4"/><path d="M0 20l13.3 1.8c13.4 1.9 40 5.5 66.7 5 26.7-.5 53.3-5.1 80-8.3 26.7-3.2 53.3-4.8 80-5.7 26.7-.8 53.3-.8 80 3.2 26.7 4 53.3 12 80 18.7 26.7 6.6 53.3 12 80 8.8 26.7-3.2 53.3-14.8 80-15 26.7-.2 53.3 11.2 80 14.8 26.7 3.7 53.3-.3 80-5.3 26.7-5 53.3-11 80-15 26.7-4 53.3-6 80 1.8 26.7 7.9 53.3 25.5 66.7 34.4L960 68V0H0z" fill="#7da2bc"/><path d="M0 34l13.3-3.5C26.7 27 53.3 20 80 21.3c26.7 1.4 53.3 11 80 9.5 26.7-1.5 53.3-14.1 80-14.6 26.7-.5 53.3 11.1 80 17.1 26.7 6 53.3 6.4 80 3.7 26.7-2.7 53.3-8.3 80-12.7 26.7-4.3 53.3-7.3 80-8 26.7-.6 53.3 1 80 2.2 26.7 1.2 53.3 1.8 80 3.3 26.7 1.5 53.3 3.9 80 6.4 26.7 2.5 53.3 5.1 80 1.5C906.7 26 933.3 16 946.7 11L960 6V0H0z" fill="#7393b3"/></svg>

<svg id="visual" viewBox="0 0 960 120" width="960" height="120" xmlns="http://www.w3.org/2000/svg" xmlns:xlink="http://www.w3.org/1999/xlink" version="1.1"><rect x="0" y="0" width="960" height="120" fill="#9AC0CD"></rect><path d="M0 59L13.3 55.7C26.7 52.3 53.3 45.7 80 52.5C106.7 59.3 133.3 79.7 160 89.7C186.7 99.7 213.3 99.3 240 96.5C266.7 93.7 293.3 88.3 320 90C346.7 91.7 373.3 100.3 400 103.8C426.7 107.3 453.3 105.7 480 99C506.7 92.3 533.3 80.7 560 71.8C586.7 63 613.3 57 640 55.7C666.7 54.3 693.3 57.7 720 62.7C746.7 67.7 773.3 74.3 800 81C826.7 87.7 853.3 94.3 880 95.8C906.7 97.3 933.3 93.7 946.7 91.8L960 90L960 0L946.7 0C933.3 0 906.7 0 880 0C853.3 0 826.7 0 800 0C773.3 0 746.7 0 720 0C693.3 0 666.7 0 640 0C613.3 0 586.7 0 560 0C533.3 0 506.7 0 480 0C453.3 0 426.7 0 400 0C373.3 0 346.7 0 320 0C293.3 0 266.7 0 240 0C213.3 0 186.7 0 160 0C133.3 0 106.7 0 80 0C53.3 0 26.7 0 13.3 0L0 0Z" fill="#9ac0cd"></path><path d="M0 30L13.3 30.5C26.7 31 53.3 32 80 41.5C106.7 51 133.3 69 160 73C186.7 77 213.3 67 240 61.5C266.7 56 293.3 55 320 59.2C346.7 63.3 373.3 72.7 400 68.7C426.7 64.7 453.3 47.3 480 40.3C506.7 33.3 533.3 36.7 560 38.3C586.7 40 613.3 40 640 47C666.7 54 693.3 68 720 65.7C746.7 63.3 773.3 44.7 800 44.5C826.7 44.3 853.3 62.7 880 65.8C906.7 69 933.3 57 946.7 51L960 45L960 0L946.7 0C933.3 0 906.7 0 880 0C853.3 0 826.7 0 800 0C773.3 0 746.7 0 720 0C693.3 0 666.7 0 640 0C613.3 0 586.7 0 560 0C533.3 0 506.7 0 480 0C453.3 0 426.7 0 400 0C373.3 0 346.7 0 320 0C293.3 0 266.7 0 240 0C213.3 0 186.7 0 160 0C133.3 0 106.7 0 80 0C53.3 0 26.7 0 13.3 0L0 0Z" fill="#8ab1c4"></path><path d="M0 20L13.3 21.8C26.7 23.7 53.3 27.3 80 26.8C106.7 26.3 133.3 21.7 160 18.5C186.7 15.3 213.3 13.7 240 12.8C266.7 12 293.3 12 320 16C346.7 20 373.3 28 400 34.7C426.7 41.3 453.3 46.7 480 43.5C506.7 40.3 533.3 28.7 560 28.5C586.7 28.3 613.3 39.7 640 43.3C666.7 47 693.3 43 720 38C746.7 33 773.3 27 800 23C826.7 19 853.3 17 880 24.8C906.7 32.7 933.3 50.3 946.7 59.2L960 68L960 0L946.7 0C933.3 0 906.7 0 880 0C853.3 0 826.7 0 800 0C773.3 0 746.7 0 720 0C693.3 0 666.7 0 640 0C613.3 0 586.7 0 560 0C533.3 0 506.7 0 480 0C453.3 0 426.7 0 400 0C373.3 0 346.7 0 320 0C293.3 0 266.7 0 240 0C213.3 0 186.7 0 160 0C133.3 0 106.7 0 80 0C53.3 0 26.7 0 13.3 0L0 0Z" fill="#7da2bc"></path><path d="M0 34L13.3 30.5C26.7 27 53.3 20 80 21.3C106.7 22.7 133.3 32.3 160 30.8C186.7 29.3 213.3 16.7 240 16.2C266.7 15.7 293.3 27.3 320 33.3C346.7 39.3 373.3 39.7 400 37C426.7 34.3 453.3 28.7 480 24.3C506.7 20 533.3 17 560 16.3C586.7 15.7 613.3 17.3 640 18.5C666.7 19.7 693.3 20.3 720 21.8C746.7 23.3 773.3 25.7 800 28.2C826.7 30.7 853.3 33.3 880 29.7C906.7 26 933.3 16 946.7 11L960 6L960 0L946.7 0C933.3 0 906.7 0 880 0C853.3 0 826.7 0 800 0C773.3 0 746.7 0 720 0C693.3 0 666.7 0 640 0C613.3 0 586.7 0 560 0C533.3 0 506.7 0 480 0C453.3 0 426.7 0 400 0C373.3 0 346.7 0 320 0C293.3 0 266.7 0 240 0C213.3 0 186.7 0 160 0C133.3 0 106.7 0 80 0C53.3 0 26.7 0 13.3 0L0 0Z" fill="#7393b3"></path></svg>
